static/logos/people.ai-glyph-color.svg

<svg width="50" height="51" viewBox="0 0 50 51" fill="none" xmlns="http://www.w3.org/2000/svg">
<g clip-path="url(#clip0_1_1703)">
<path fill-rule="evenodd" clip-rule="evenodd" d="M13.0717 0.932051C11.5111 1.44821 9.70707 2.23912 9.06263 2.69064C7.95556 3.46589 7.80101 3.44215 6.25202 2.26084C5.06111 1.35225 3.98232 1.01033 2.30657 1.01033H0V25.7578V50.5051H4.0404H8.08081V42.2492V33.9932L10.4798 35.176C18.8606 39.3083 28.849 36.7114 34.0763 29.0407C40.5818 19.4952 36.9136 6.46338 26.3611 1.63256C22.5586 -0.108353 17.0919 -0.39623 13.0717 0.932051ZM23.9899 9.21035C27.6944 11.1538 29.4692 14.5538 29.2066 19.2043C28.9611 23.5477 27.2889 26.1659 23.5813 28.0139C14.1631 32.7068 4.69747 23.1503 9.40555 13.7018C12.0556 8.38359 18.5823 6.37348 23.9899 9.21035Z" fill="#001D45"/>
<path d="M35.2109 36.8689L42.4786 31.5775C46.4761 28.6674 49.8039 26.2811 49.8731 26.2745C49.9422 26.2679 49.9993 28.6492 49.9993 31.5659V36.8689H42.6049H35.2109Z" fill="#005DE1"/>
</g>
<defs>
<clipPath id="clip0_1_1703">
<rect width="50" height="50.5051" fill="white"/>
</clipPath>
</defs>
</svg>

<svg xmlns="http://www.w3.org/2000/svg" width="62.745" height="64" fill="none" viewBox="0 0 50 51"><g clip-path="url(#a)"><path fill="#001D45" fill-rule="evenodd" d="M13.072.932c-1.56.516-3.365 1.307-4.01 1.759-1.106.775-1.261.751-2.81-.43-1.19-.909-2.27-1.25-3.945-1.25H0v49.494h8.08V33.993l2.4 1.183c8.38 4.132 18.369 1.535 23.596-6.135 6.506-9.546 2.838-22.578-7.715-27.408-3.802-1.741-9.27-2.03-13.29-.7ZM23.99 9.21c3.704 1.944 5.48 5.344 5.217 9.994-.246 4.344-1.918 6.962-5.626 8.81-9.418 4.693-18.884-4.864-14.175-14.312 2.65-5.318 9.176-7.329 14.584-4.492Z" clip-rule="evenodd"/><path fill="#005DE1" d="m35.21 36.869 7.269-5.291c3.997-2.91 7.325-5.297 7.394-5.303.07-.007.126 2.374.126 5.29v5.304H35.211Z"/></g><defs><clipPath id="a"><path fill="#fff" d="M0 0h50v50.505H0z"/></clipPath></defs></svg>
